X: 12545
T: Farewell To Lisheen
R: jig
M: 6/8
K: Dmajor
|:dAd cBc|BAF AFD|dDd cBc|BAF E3|
dfd cec|BAF ABd|D2F AFD|EFE D3:|
|:DEF ABc|BAF AFE|DEF ABc|BAF E2A,|
DEF ABc|BAF ABd|D2F AFD|EFE D3:|

